X: 3725
T: Bimíd Ag Ól
R: jig
M: 6/8
K: Gmajor
|:DGA ~B3|cBc d3|DGA B2 d|cAG AGF|
DGA ~B3|cBc def|gbg afd|1 cAG G2E:|2 cAG G2 D||
|:GBd ~g3|gfd =f3|GBd ~g3|gfd cAF|
GBd ~g3|gae =f2g|abg afd|1 cAG G2D:|2 cAG G2 G||
|:FGA A2 c|BAG cAG|FGA Ace|dAF G3|
FGA cAG|Ade f2g|abg afd|cAF G3:|

